src/img/distribution/distribution-04.svg

<svg width="32" height="57" viewBox="0 0 32 57" fill="none" xmlns="http://www.w3.org/2000/svg">
<path fill-rule="evenodd" clip-rule="evenodd" d="M1.61552 57.1713C1.82822 57.1569 2.02666 56.9538 2.23935 56.9682C4.11343 56.8334 5.95609 56.5238 7.62792 55.6638C8.27399 55.3563 8.84461 54.9099 9.29922 54.3562C9.75384 53.8026 10.0813 53.1553 10.2583 52.4604C10.2415 52.3733 10.2415 52.2837 10.2583 52.1966C10.4821 51.1189 10.5455 50.014 10.4462 48.9178C10.2659 47.0786 10.1281 44.4782 10.0329 42.624C9.97776 41.82 9.94019 41.0286 9.92015 40.2497C9.652 40.8825 9.28404 41.4678 8.8304 41.9833C7.91605 43.0532 6.78996 43.9207 5.52358 44.531C5.52358 44.026 5.47097 43.6642 5.44843 43.4381C5.42588 43.0455 5.37565 42.6551 5.29812 42.2697C6.05258 41.782 6.78015 41.2536 7.47761 40.6869C8.14103 40.0741 8.7221 39.3773 9.20617 38.6141C9.40714 38.2534 9.53486 37.8563 9.58195 37.4458C9.6571 37.0689 9.7022 36.7373 9.73226 36.4659V36.3905C9.6571 34.4308 9.58195 32.4786 9.50679 30.549C9.44252 29.696 9.44252 28.8393 9.50679 27.9863C9.50679 27.7074 9.54437 27.4587 9.54437 27.2325C9.94834 27.0636 10.3379 26.8619 10.7093 26.6295C11.1856 26.3398 11.638 26.0121 12.0621 25.6497C12.7901 25.0137 13.5555 24.4222 14.3543 23.8784C15.1509 23.298 15.9551 22.7101 16.7592 22.1071V22.1447C18.5329 20.8081 20.2865 19.5016 22.0201 18.2253C22.4298 17.9162 22.8706 17.6509 23.3353 17.4338C24.6177 16.9556 25.7617 16.1657 26.6647 15.1349C26.6647 15.1349 26.6647 15.1349 26.6647 15.0595C27.1179 14.5227 27.474 13.9105 27.7168 13.2506C28.0175 12.6702 28.288 12.0898 28.5435 11.5169C29.0947 10.4315 29.6208 9.33862 30.1218 8.23815C30.1661 8.06835 30.2291 7.90403 30.3097 7.74821V7.71053C30.364 7.56871 30.4268 7.43028 30.4976 7.29597C31.0387 6.08997 31.4971 4.79353 31.9255 3.54231C31.9475 3.47229 31.9521 3.39795 31.939 3.32572C31.9259 3.25349 31.8955 3.18555 31.8504 3.12775C31.7857 2.95302 31.6972 2.78813 31.5873 2.63782C31.5023 2.51841 31.4269 2.39239 31.3619 2.26095C31.0738 1.69891 30.6689 1.20541 30.1744 0.813757C29.7503 0.418657 29.2095 0.172621 28.6337 0.112774H28.2955C28.2543 0.0938041 28.2094 0.0839844 28.164 0.0839844C28.1186 0.0839844 28.0738 0.0938041 28.0325 0.112774C27.9284 0.166575 27.8384 0.244006 27.7694 0.338897C27.5139 0.738382 27.2434 1.16802 26.9427 1.62026C26.7156 1.94055 26.4643 2.24293 26.1912 2.52476C26.086 2.62275 26.101 2.69812 26.1912 2.75088C26.4286 2.86473 26.6821 2.941 26.9427 2.97701C27.3686 3.06479 27.7601 3.27419 28.0701 3.58C28.0214 3.62091 27.9829 3.67249 27.9573 3.73075C27.6793 4.25837 27.2058 5.23824 26.4542 6.67036C25.8229 7.87635 25.4021 8.74316 25.1766 9.27078C24.6128 10.4461 23.8207 11.4968 22.8468 12.3611C21.7396 13.446 20.5594 14.4534 19.3145 15.3761C16.4008 17.5318 13.331 19.4667 10.1306 21.1649C8.77779 21.9186 6.13484 23.2377 2.20173 25.122L1.71322 25.3482C1.70087 25.4735 1.70087 25.5997 1.71322 25.725C1.71612 25.7653 1.72904 25.8042 1.7508 25.8381V25.9512C1.49647 26.2433 1.27001 26.5588 1.07441 26.8933C0.482437 27.9933 0.172516 29.2237 0.17255 30.4736C0.125072 32.0464 0.187857 33.6206 0.360437 35.1845C0.360437 35.3579 0.405529 35.5313 0.435591 35.7122C0.706148 37.6418 0.848946 38.7271 0.848946 38.991C0.773882 40.6247 0.811546 42.2617 0.961676 43.8903V44.041C1.11199 46.0008 1.24726 48.6841 1.37503 50.5986C1.42336 51.0619 1.44844 51.5273 1.45018 51.9931C1.58546 53.7644 1.61552 55.4603 1.61552 57.1713Z" fill="#132146"/>
</svg>

<svg width="32" height="57" fill="none" xmlns="http://www.w3.org/2000/svg"><path fill-rule="evenodd" clip-rule="evenodd" d="M1.616 57.171c.212-.014.41-.217.623-.203 1.874-.135 3.717-.444 5.389-1.304a4.871 4.871 0 002.63-3.204.697.697 0 010-.263 11.17 11.17 0 00.188-3.28c-.18-1.838-.318-4.439-.413-6.293a55.607 55.607 0 01-.113-2.374 6.41 6.41 0 01-1.09 1.733 10.142 10.142 0 01-3.306 2.548c0-.505-.053-.867-.076-1.093a8.353 8.353 0 00-.15-1.168 24.845 24.845 0 002.18-1.583 10.418 10.418 0 001.728-2.073 3.13 3.13 0 00.376-1.168c.075-.377.12-.709.15-.98v-.075l-.225-5.842a17.055 17.055 0 010-2.563c0-.279.037-.527.037-.753a8.05 8.05 0 001.165-.604c.477-.29.929-.617 1.353-.98a24.085 24.085 0 012.292-1.77c.797-.581 1.601-1.169 2.405-1.772v.038a587.964 587.964 0 015.261-3.92c.41-.309.85-.574 1.315-.791a8.266 8.266 0 003.33-2.3v-.075a6.034 6.034 0 001.052-1.808c.3-.58.571-1.161.827-1.734a85.269 85.269 0 001.578-3.279c.044-.17.107-.334.188-.49v-.037a3.77 3.77 0 01.188-.415c.54-1.206 1-2.502 1.427-3.754a.453.453 0 00-.075-.414 2.016 2.016 0 00-.263-.49 2.758 2.758 0 01-.225-.377A4.415 4.415 0 0030.174.814a2.664 2.664 0 00-1.54-.701h-.338a.315.315 0 00-.264 0 .752.752 0 00-.263.226c-.255.4-.526.829-.826 1.281a7.7 7.7 0 01-.752.905c-.105.098-.09.173 0 .226.238.114.491.19.752.226.426.088.817.297 1.127.603a.414.414 0 00-.113.15c-.278.528-.751 1.508-1.503 2.94-.631 1.206-1.052 2.073-1.277 2.6a9.797 9.797 0 01-2.33 3.091 33.829 33.829 0 01-3.533 3.015 72.863 72.863 0 01-9.183 5.789c-1.353.754-3.996 2.073-7.93 3.957l-.488.226a1.92 1.92 0 000 .377c.003.04.016.08.038.113v.113a6.207 6.207 0 00-.677.942 7.555 7.555 0 00-.901 3.58 33.684 33.684 0 00.187 4.712c0 .173.046.346.076.527.27 1.93.413 3.015.413 3.279a35.582 35.582 0 00.113 4.9v.15c.15 1.96.285 4.643.413 6.558.048.463.073.928.075 1.394.135 1.771.166 3.467.166 5.178z" fill="#132146"/></svg>
